!!!COM: Hugo Wolf
!!!CNT: Deutscher
!!!TXO: Deutsche 
!!!OTL: Gesang Weylas
!!!ONM: No. 46
!!!ODT: 1888/
!!!LYR: Moericke
!!!ENC: Brian Bice
!!!YOR: 65 Songs for voice and piano, International Music Company, 1960
!!NB: Vocal melody and text only encoded.
**kern	**silbe
*clefG2	*
*k[b-e-a-]	*
*M4/4	*
=2	=2
{8b-	{Du
4b-	bist
8b-	Or-
4.b-	-plid,
8b-	mein
=3	=3
2b-}	Land!}
4r	.
{4b-	{das
=4	=4
[2.cc	fer-
8cc]	|
8ee-	-ne
=5	=5
2ee-	leuch-
2bb-}	-tet;}
=6	=6
8r	.
{8dd	{vom
8dd	Mee-
8dd	-re
8dd	dam-
8dd	-pfet
8dd	dein
8dd	be-
=7	=7
4.cc	-sonn-
8cc	-ter
8cc}	Strand}
{8cc	{den
[4ee-	Ne-
=8	=8
8ee-]	|
8b-	-bel,
8g	so
8f	der
8e-	Go2t-
8g	-ter
[4b-	Wan-
=9	=9
8b-]	|
8cc	-ge
[4b-	feuch-
8b-]	|
4g}	-tet.}
8r	.
=10	=10
{8e-	{Ur-
4e-	-al-
8e-	-te
8.e-	Was-
16dd-	-ser
([4dd-	stei-
=11	=11
8dd-]	|
8cc-)	|
8b-}	-gen}
{8a-	{ver-
8g	-ju2ngt
8a-	um
8b-	dei-
8dd-	-ne
=12	=12
4cc	Hu2f-
8f	-ten,
8r	.
[2ee-	Kind!
=13	=13
8ee-]}	|}
8r	.
4r	.
2r	.
=14	=14
8r	.
{8ee-	{Vor
8ee-	dei-
8ee-	-ner
4dd	Gott-
4dd-	-heit
=15	=15
2cc	beu-
4cc-}	-gen}
{4a-	{sich
=16	=16
4.gg	Ko2-
8ff	-ni-
8ee-	-ge,
8b-	die
8g	dei-
8a-	-ne
=17	=17
(8g	Wa2r-
4f)	|
8e-	-ter
2e-}	sind.}
*-	*-
